X: 11023
M: 2/4
L: 1/16
K: Eb
!mf!B2 |\
e4 (Bege) | f2f2 f4 | (gf)ga (bg)fe | (b=a)bc' (b_agf) |!f!\
e4 (Bege) | f2f2 f3a | (gb)ge (fb)af | e2e2e2 H|]
!p!F2 |\
!p!D2 |\
"8va  .  .  .  ."\



